assets/svg/icon-ui-content-change-agent-medium-blue.svg

<?xml version="1.0" encoding="UTF-8" standalone="no"?>
<svg width="38px" height="32px" viewBox="0 0 38 32" version="1.1" xmlns="http://www.w3.org/2000/svg" xmlns:xlink="http://www.w3.org/1999/xlink">
    <!-- Generator: Sketch 3.8.3 (29802) - http://www.bohemiancoding.com/sketch -->
    <title>blue/icon-ui-content-change-agent-medium-blue</title>
    <desc>Created with Sketch.</desc>
    <defs></defs>
    <g id="blue,-base" stroke="none" stroke-width="1" fill="none" fill-rule="evenodd">
        <g id="icons,-utility-(blue)" transform="translate(-103.000000, -1183.000000)" fill="#1055FF">
            <g id="blue/icon-ui-content-change-agent-medium-blue" transform="translate(103.000000, 1183.000000)">
                <g id="icon-content-change-agent-medium">
                    <g id="Page-1">
                        <g id="solo-icons">
                            <g id="icon-content-change-agent-medium">
                                <path d="M37.0965333,5.77867566 C37.0894222,5.77297079 37.0837333,5.76548315 37.0748444,5.7612045 L37.0620444,5.75478652 L25.8371556,0.126576779 C25.7614222,0.0884254681 25.6817778,0.062753558 25.6010667,0.0420734082 C25.4997333,0.0160449438 25.3962667,0 25.2924444,0 C24.8625778,0 24.4348444,0.216428464 24.2030222,0.593662921 L17.7408,11.1248509 L25.8506667,24.3401797 L37.1310222,5.95837902 C37.1683556,5.89705168 37.1505778,5.82146217 37.0965333,5.77867566" id="Fill-53"></path>
                                <polyline id="Fill-54" points="14.1813333 8.72595356 14.1813333 20.713666 24.8067556 26.0413004 14.1813333 8.72595356"></polyline>
                                <path d="M26.4032,26.8417648 L35.1495111,31.2270261 C36.2876444,31.7978697 37.2103111,31.3981723 37.2103111,30.3349273 L37.2103111,9.23083445 L26.4032,26.8417648" id="Fill-55"></path>
                                <path d="M12.3367111,5.79579026 L1.37386667,0.29879251 C1.17582222,0.199670412 0.987377778,0.152605243 0.816711111,0.152605243 C0.336711111,0.152605243 0,0.525204494 0,1.1502442 L0,24.8860644 C0,25.5214443 0.463644444,26.2737739 1.0304,26.5579476 L10.6862222,31.399242 C10.9336889,31.5233228 11.1694222,31.5821543 11.3824,31.5821543 C11.9825778,31.5821543 12.4035556,31.1164944 12.4035556,30.3349273 L12.4035556,5.90382622 C12.4035556,5.85818727 12.3776,5.81611385 12.3367111,5.79579026" id="Fill-56"></path>
                            </g>
                        </g>
                    </g>
                </g>
            </g>
        </g>
    </g>
</svg>

<svg width="38" height="32" viewBox="0 0 38 32" xmlns="http://www.w3.org/2000/svg"><title>blue/icon-ui-content-change-agent-medium-blue</title><g fill="#1055FF" fill-rule="evenodd"><path d="M37.097 5.779c-.008-.006-.013-.014-.022-.018l-.013-.006L25.837.127a1.16 1.16 0 0 0-.236-.085A1.243 1.243 0 0 0 25.292 0c-.43 0-.857.216-1.089.594l-6.462 10.53 8.11 13.216L37.13 5.958a.137.137 0 0 0-.034-.18M14.181 8.726v11.988l10.626 5.327L14.18 8.726M26.403 26.842l8.747 4.385c1.138.57 2.06.171 2.06-.892V9.23L26.403 26.84M12.337 5.796L1.374.299A1.255 1.255 0 0 0 .817.153C.337.153 0 .525 0 1.15v23.736c0 .635.464 1.388 1.03 1.672l9.656 4.841c.248.124.483.183.696.183.6 0 1.022-.466 1.022-1.247V5.904a.12.12 0 0 0-.067-.108"/></g></svg>
